!!!COM: Kittel, Johann Christian
!!!CDT: 1732/02/18-1809/04/17
!!!OPR: 24 Choräle mit acht verschiedenen Bässen
!!!ONM: 2
!!!OTL@@DE: Allein Gott in der Höh
**kern	**fb	**kern	**fb	**kern	**fb	**kern	**fb	**kern	**fb	**kern	**fb	**kern	**fb	**kern	**fb	**kern
*	*slash	*	*slash	*	*slash	*	*slash	*	*slash	*	*slash	*	*slash	*	*slash	*
*	*above	*	*above	*	*above	*	*above	*	*above	*	*above	*	*above	*	*above	*
*I"8	*	*I"7	*	*I"6	*	*I"5	*	*I"4	*	*I"3	*	*I"2	*	*I"1	*	*I"c.f.
*I'8	*	*I'7	*	*I'6	*	*I"5	*	*I'4	*	*I'3	*	*I'2	*	*I'1	*	*I'c.f.
*clefF4	*	*clefF4	*	*clefF4	*	*clefF4	*	*clefF4	*	*clefF4	*	*clefF4	*	*clefF4	*	*clefG2
*k[f#]	*	*k[f#]	*	*k[f#]	*	*k[f#]	*	*k[f#]	*	*k[f#]	*	*k[f#]	*	*k[f#]	*	*k[f#]
*M4/4	*	*M4/4	*	*M4/4	*	*M4/4	*	*M4/4	*	*M4/4	*	*M4/4	*	*M4/4	*	*M4/4
*met(c)	*	*met(c)	*	*met(c)	*	*met(c)	*	*met(c)	*	*met(c)	*	*met(c)	*	*met(c)	*	*met(c)
*MM180	*	*MM180	*	*MM180	*	*MM180	*	*MM180	*	*MM180	*	*MM180	*	*MM180	*	*MM180
=1	=1	=1	=1	=1	=1	=1	=1	=1	=1	=1	=1	=1	=1	=1	=1	=1
*G:	*	*C:	*	*G:	*	*G:	*	*G:	*	*G:	*	*G:	*	*G:	*	*G:
2r	.	2r	.	2r	.	2r	.	2r	.	2r	.	2r	.	2r	.	2r
2.GG	1 8_ 3	2C	5	2G	.	[1G	.	2G	.	2GG	.	2G	.	2GG	.	2g
*	*	*G:	*	*	*	*	*	*	*	*	*	*	*	*	*	*
.	2 x_ 4	.	4 2	.	.	.	.	.	.	.	.	.	.	.	.	.
=2.	=2.	=2.	=2.	=2.	=2.	=2.	=2.	=2.	=2.	=2.	=2.	=2.	=2.	=2.	=2.	=2.
*	*	*	*	*C:	*	*	*	*C:	*	*	*	*	*	*	*	*
.	3 X 5_	2BB	6	2F	4 -	.	.	2Fn	4 2	1G	5 3	2GG	.	2G	.	2b
*	*	*a:	*	*	*	*	*	*	*	*	*	*	*	*	*	*
4GG#	x n7 X	.	#6|	.	.	.	.	.	.	.	.	.	.	.	.	.
(4AA	5_ 3_	(4AA	5_ 3_	2E	6	2G]	6 4	2E	6	.	4 2	2AA	7	2E	6	2cc
4GGnX)	X X	4GG)	X X	.	.	.	.	.	.	.	.	.	.	.	.	.
=3.	=3.	=3.	=3.	=3.	=3.	=3.	=3.	=3.	=3.	=3.	=3.	=3.	=3.	=3.	=3.	=3.
*	*	*	*	*	*	*C:	*	*	*	*	*	*	*	*	*	*
(4FF#	6	(4FF#	6	2BB	6 5n	2F	4 2	2BB	6 5n	2F#	6	2BB	6	2BB	6	2dd
4FFnX)	4 2	4GG#)	6 5	.	.	.	.	.	.	.	.	.	.	.	.	.
(4EE	6	2AA	9	(4C	6	2E	6	2C	.	(4E	6	2C	6	2C	6	2cc
4EE-)	4 2	.	8	4D)	.	.	.	.	.	4F#)	.	.	.	.	.	.
=4.	=4.	=4.	=4.	=4.	=4.	=4.	=4.	=4.	=4.	=4.	=4.	=4.	=4.	=4.	=4.	=4.
*	*	*e:	*	*e:	*	*e:	*	*a:	*	*	*	*	*	*	*	*
(4DD	6_ 4_	2BB	7 #	1E	8 n	2BB	6 4	2GG#	7n 5	2G	.	2D	6 4	2D	6 4	2b
4CC#)	X X	.	6 4	.	7	.	.	.	.	.	.	.	.	.	.	.
*	*	*	*	*	*	*	*	*	*	*e:	*	*	*	*	*	*
2DD	5 4	2C	6 5	.	4 2	2C	6	2AA	n	(4C	6	2DD	5 3	2DD	5 3	2a
.	x 3	.	.	.	.	.	.	.	.	4AA)	.	.	.	.	.	.
=5.	=5.	=5.	=5.	=5.	=5.	=5.	=5.	=5.	=5.	=5.	=5.	=5.	=5.	=5.	=5.	=5.
*	*	*	*	*	*	*	*	*e:	*	*	*	*	*	*	*	*
1GG;	.	1BB;	6 4	1D#;	6	1BB;	4	1DD#;	6	1E;	4	1GG;	.	1GG;	.	1b;
.	.	.	5 #	.	.	.	#	.	.	.	3	.	.	.	.	.
=6	=6	=6	=6	=6	=6	=6	=6	=6	=6	=6	=6	=6	=6	=6	=6	=6
2r	.	2r	.	2r	.	2r	.	2r	.	2r	.	2r	.	2r	.	2r
*	*	*	*	*	*	*	*	*a:	*	*a:	*	*	*	*	*	*
2GG	.	[1E	5 3	2E	5	2E	.	2D#	6	2A	#4| 2	2GG	.	2E	.	2b
.	.	.	.	.	6	.	.	.	5	.	.	.	.	.	.	.
=7.	=7.	=7.	=7.	=7.	=7.	=7.	=7.	=7.	=7.	=7.	=7.	=7.	=7.	=7.	=7.	=7.
*	*	*	*	*G:	*	*	*	*	*	*	*	*	*	*	*	*
8DL	6 4	.	5 2 7	[2D	6 4	2BB	6	(4E	#_	2G#	6 5n	2D	6 4	(4BB	6	2b
8C#	x x	.	.	.	.	.	.	.	.	.	.	.	.	.	.	.
8D	x x	.	# 7n	.	.	.	.	4DnX)	X	.	.	.	.	4C)	.	.
8C#J	X X	.	.	.	.	.	.	.	.	.	.	.	.	.	.	.
*	*	*	*	*	*	*	*	*	*	*	*	*a:	*	*	*	*
[2D	5 3	2.E]	4 4_ 6	2D]	5 n	2C	6	(4C	6	2A	.	4C	6	2D	5	(4a
.	6 4	.	5 x_ 7	.	6	.	.	4BB)	#6|	.	.	4BB	#6|	.	6	4b)
=8.	=8.	=8.	=8.	=8.	=8.	=8.	=8.	=8.	=8.	=8.	=8.	=8.	=8.	=8.	=8.	=8.
*	*	*	*	*	*	*	*	*	*	*G:	*	*	*	*	*	*
8DL]	7 4 2	.	6_ x_ 8	2C	.	2AA	.	2AA	.	2F#	6 5	2AA	.	2A	5	2cc
8C#	x x x	.	.	.	.	.	.	.	.	.	.	.	.	.	.	.
8D	x x x	4D#	X X 3	.	.	.	.	.	.	.	.	.	.	.	6	.
8C#J	X X X	.	.	.	.	.	.	.	.	.	.	.	.	.	.	.
*	*	*	*	*	*	*G:	*	*G:	*	*	*	*G:	*	*	*	*
4D	6 4	(4E	5 3 3	2GG	.	2D	6 4	2BB	6n	2Gn	9	2D	6 4	(4BB	6	2b
4DD	X X	4DnX)	6 4	.	.	.	.	.	.	.	8	.	.	4C)	.	.
=9.	=9.	=9.	=9.	=9.	=9.	=9.	=9.	=9.	=9.	=9.	=9.	=9.	=9.	=9.	=9.	=9.
(4EE	6 4	2C	6	2AA	7	2D#	n7 5	2C	6	2D	4	2C	4 2	2D	.	2a
4FF#)	X X	.	.	.	#6|	.	.	.	.	.	3	.	.	.	.	.
(4GG	.	2BB	6	[2BB	6	2E	.	[2D	6 4	2E	9	2BB	6	2E	.	(2g
8AAL	.	.	.	.	.	.	.	.	.	.	8	.	.	.	.	.
8BBJ)	.	.	.	.	.	.	.	.	.	.	.	.	.	.	.	.
=10.	=10.	=10.	=10.	=10.	=10.	=10.	=10.	=10.	=10.	=10.	=10.	=10.	=10.	=10.	=10.	=10.
*	*	*G:	*	*	*	*	*	*	*	*	*	*	*	*	*	*
(4C	9_	2C	9	2BB]	4 2	2AA	3	2D]	7 4 2	2A	9	2C	.	2AA	.	2e
4BB)	X	.	.	.	.	.	2	.	.	.	.	.	.	.	.	.
(4AA	6_	2AA	6	2AA	6	2DnX	5	2DD	8 5	2D	8	2AA	6	2D	.	2f#)
4D)	X	.	.	.	.	.	7	.	n7	.	7	.	.	.	.	.
=11.	=11.	=11.	=11.	=11.	=11.	=11.	=11.	=11.	=11.	=11.	=11.	=11.	=11.	=11.	=11.	=11.
1GG;	8 3	1GG;	4	1GG;	4	1GG;	.	1GG;	8 3	1GG;	8 3	1GG;	4	1GG;	.	1g;
.	.	.	3	.	3	.	.	.	.	.	.	.	3	.	.	.
=12:|!	=12:|!	=12:|!	=12:|!	=12:|!	=12:|!	=12:|!	=12:|!	=12:|!	=12:|!	=12:|!	=12:|!	=12:|!	=12:|!	=12:|!	=12:|!	=12:|!
2r	.	2r	.	2r	.	2r	.	2r	.	2r	.	2r	.	2r	.	2r
*E-:	*	*F:	*	*a:	*	*C:	*	*a:	*	*	*	*a:	*	*a:	*	*
1E-	3 5-	2C	.	2E	6	2E	6	1E	3 5	1C	5 3	1E	5 3	2E	.	2g
=13.	=13.	=13.	=13.	=13.	=13.	=13.	=13.	=13.	=13.	=13.	=13.	=13.	=13.	=13.	=13.	=13.
.	#4| 3	2FnX	7	2C	6	2FnX	9	.	4 3	.	4 2	.	6 4	2C	6	2a
*C:	*	*a:	*	*	*	*	*	*	*	*a:	*	*	*	*	*	*
2D	6 n	2GG#	n7	2D	6 5 n	2D	6 n	2D	6 n	2BB	#6|	2D	#4| n	2BB	#6|	2b
=14.	=14.	=14.	=14.	=14.	=14.	=14.	=14.	=14.	=14.	=14.	=14.	=14.	=14.	=14.	=14.	=14.
2C	5	2AA	.	2AA	.	2C	.	2C	.	2AA	.	2C	6	2AA	.	2cc
.	6	.	.	.	.	.	.	.	.	.	.	.	.	.	.	.
*a:	*	*	*	*	*	*a:	*	*	*	*	*	*	*	*	*	*
2GG#	7n 6	2D	6 n	2GG	6	2D	6 n	2GG#	6 5	2E	#	2D	6 n	2D	6 n	2b
.	x 5	.	.	.	.	.	.	.	.	.	.	.	.	.	.	.
=15.	=15.	=15.	=15.	=15.	=15.	=15.	=15.	=15.	=15.	=15.	=15.	=15.	=15.	=15.	=15.	=15.
2AA	4	2D#	7n 5	2FFnX	7	2E	6 4	2AA	.	2FnX	7	2.E	6 4	2E	6 4	2a
.	3	.	.	.	#6|	.	.	.	.	.	#6|	.	.	.	.	.
2EE	#_ 7_ 6	2E	#_ 8	2EE	8 #_	2EE	8 5_ #_	2BB	#6|	(4E	#_	.	5_ #_	2EE	5 #	2g#
.	X X 5	.	X 7	.	7 X	.	7 X X	.	.	4D)	X	4D	X X	.	.	.
=16.	=16.	=16.	=16.	=16.	=16.	=16.	=16.	=16.	=16.	=16.	=16.	=16.	=16.	=16.	=16.	=16.
1AA;	8 n	1AA;	8 3	1AA;	8 3	1FFnX;	5 3	1C;	6	1C#;	6	1C;	6	1AA;	.	1a;
=17	=17	=17	=17	=17	=17	=17	=17	=17	=17	=17	=17	=17	=17	=17	=17	=17
2r	.	2r	.	2r	.	2r	.	2r	.	2r	.	2r	.	2r	.	2r
*a:	*	*G:	*	*C:	*	*	*	*	*	*	*	*	*	*G:	*	*
!LO:SIC:o=2F:v	!	!	!	!	!	!	!	!	!	!	!	!	!	!	!	!
[2FnX	3	2E-	#6| 4 3	2FnX	.	2C	6	2C	6	2CnX	4 2	2C	4 2	2D	.	2a
=18.	=18.	=18.	=18.	=18.	=18.	=18.	=18.	=18.	=18.	=18.	=18.	=18.	=18.	=18.	=18.	=18.
!LO:SIC:o=2Fyy:v	!	!	!	!	!	!	!	!	!	!	!	!	!	!	!	!
2F]	4 3	2D	6 4	2D	6 n	2D	6 5 n	2GG#	6 5	2BB	#6|	2BB	#6|	2G	.	2b
2E	6 4	2C	6	2E	6	2C	6	2AA	3	2AA	.	2AA	.	2E	6	2cc
.	.	.	.	.	.	.	.	.	2	.	.	.	.	.	.	.
=19.	=19.	=19.	=19.	=19.	=19.	=19.	=19.	=19.	=19.	=19.	=19.	=19.	=19.	=19.	=19.	=19.
2BB	#6| 5n	2BB	#6| 5n	2BB	6 5n	2BB	7	2DD	.	2FnX	6	2GG#	6 5	2BB	6 5n	2dd
.	.	.	.	.	.	.	#6|	.	.	.	.	.	.	.	.	.
*	*	*	*	*G:	*	*	*	*G:	*	*	*	*	*	*	*	*
(4C	6	2C	6	2C	6	2AA	.	(4EE	6	2E	6 4	2AA	.	2C	.	2cc
4D)	.	.	.	.	.	.	.	4FF#)	6 5	.	.	.	.	.	.	.
=20.	=20.	=20.	=20.	=20.	=20.	=20.	=20.	=20.	=20.	=20.	=20.	=20.	=20.	=20.	=20.	=20.
*e:	*	*	*	*	*	*e:	*	*	*	*	*	*e:	*	*	*	*
(4E	n	2D	6 4n	2D	6 4	(4E	n	2GG	9	2D	6_ 5 n_	(4E	n	2D	6 4	2b
.	.	.	.	.	.	.	.	.	.	.	X #4| X	.	.	.	.	.
4D)	.	.	.	.	.	4D)	.	.	8	.	.	4D)	.	.	.	.
2C	6	2DD	5 3	2DD	5 #	2C	6	2D	4	(4C	6	2C	6	2DD	5 #	2a
.	.	.	.	.	.	.	.	.	3	4AA)	.	.	.	.	.	.
=21.	=21.	=21.	=21.	=21.	=21.	=21.	=21.	=21.	=21.	=21.	=21.	=21.	=21.	=21.	=21.	=21.
1BB;	4	1GG;	.	1GG;	.	1BB;	4	1GG;	.	1E;	5_ 4	1BB;	5_ 4	1GG;	.	1b;
.	#	.	.	.	.	.	#	.	.	.	X n	.	X #	.	.	.
=22	=22	=22	=22	=22	=22	=22	=22	=22	=22	=22	=22	=22	=22	=22	=22	=22
2r	.	2r	.	2r	.	2r	.	2r	.	2r	.	2r	.	2r	.	2r
.	.	.	.	.	.	.	.	.	.	.	.	.	.	.	.	.
*a:	*	*	*	*	*	*a:	*	*	*	*G:	*	*	*	*	*	*
2GG#	6 5	2GG	.	2GG	.	2AA	#4| 2	2GG	.	(4BB	6	2E	5	2E	.	2b
.	.	.	.	.	.	.	.	.	.	4C)	.	.	6	.	.	.
=23.	=23.	=23.	=23.	=23.	=23.	=23.	=23.	=23.	=23.	=23.	=23.	=23.	=23.	=23.	=23.	=23.
2AA	9	4D	6_ 4_	2.C	7	2GG#	6	[1D	6 4	(4D	6 4	2DnX	6 4	(4BB	6_	2b
.	.	4C#	X X	.	.	.	.	.	.	8EL	.	.	.	4C)	X	.
.	.	.	.	.	.	.	.	.	.	8DJ)	.	.	.	.	.	.
*	*	*	*	*	*	*	*	*	*	*a:	*	*a:	*	*	*	*
4C	6	[2D	5 3	.	6	(4C	6	.	5 3	(4C	6	(4C	6	2D	5	(4a
*	*	*	*	*a:	*	*	*	*	*	*	*	*	*	*	*	*
4BB	#6|	.	6 4	4BB	#6|	4BB)	#6|	.	6 4 n	4BB)	#6|	4BB)	#6|	.	6	4b)
=24.	=24.	=24.	=24.	=24.	=24.	=24.	=24.	=24.	=24.	=24.	=24.	=24.	=24.	=24.	=24.	=24.
2AA	5	4D]	7_ 5_	2AA	5	2AA	5	2D.]	7_ 4_ 2	2AA	8	2AA	.	2AA	5	2cc
.	6	4C#	X X	.	6	.	6	.	X X 2-	.	7	.	.	.	6	.
*	*	*	*	*G:	*	*G:	*	*	*	*e:	*	*G:	*	*	*	*
2BB	7 #	4D	6_ 4_	2D	6 4	(4BB	6n	.	6_ 4_ 8_	2BB	#	(4BB	6n	(4BB	6_	2b
.	6 4	4C#X	X X	.	.	4C)	.	4C#	X X X	.	.	4C)	.	4C)	X	.
=25.	=25.	=25.	=25.	=25.	=25.	=25.	=25.	=25.	=25.	=25.	=25.	=25.	=25.	=25.	=25.	=25.
*e:	*	*	*	*	*	*	*	*	*	*	*	*	*	*	*	*
4C#	6 5	4D	5_ 7_	2D#	7 5	4D	5_ 4 x	(4D	5 3	4C#	6	2D	8	2D	.	2a
4D#	6 5	4D#	X X	.	.	4D#	X 3 7	4CnX)	.	4D#	6 5	.	7	.	.	.
2E	.	2E	3 5	1E	5	2E	.	2BB	6	1E	5	2E	.	2E	.	(2g
=26.	=26.	=26.	=26.	=26.	=26.	=26.	=26.	=26.	=26.	=26.	=26.	=26.	=26.	=26.	=26.	=26.
*G:	*	*	*	*	*	*	*	*	*	*	*	*	*	*	*	*
2AA	9	2AA	9	.	6	2C	.	2C	9	.	#6|	2AA	9	2AA	.	2e
*	*	*	*	*	*	*	*	*	*	*G:	*	*	*	*	*	*
2D	7	2D	7	2E-	6 4 2	2D	7	4AA	6	(4D	.	2D	8	2D	.	2f#)
.	.	.	.	.	.	.	.	4D	7	4C)	.	.	7	.	.	.
=27.	=27.	=27.	=27.	=27.	=27.	=27.	=27.	=27.	=27.	=27.	=27.	=27.	=27.	=27.	=27.	=27.
1GG;	4	1GG;	4	4D	6 4	1GG;	8 3	1GG;	8 3	4BB	6	1GG;	8 3	1GG;	.	1g;
.	.	.	.	.	.	.	.	.	.	.	5n	.	.	.	.	.
.	.	.	.	4C	5 3	.	.	.	.	4C	5 3	.	.	.	.	.
.	3	.	3	2GG;	6 4	.	.	.	.	2GG;	6 4	.	.	.	.	.
.	.	.	.	.	5 3	.	.	.	.	.	5 3	.	.	.	.	.
==	==	==	==	==	==	==	==	==	==	==	==	==	==	==	==	==
*-	*-	*-	*-	*-	*-	*-	*-	*-	*-	*-	*-	*-	*-	*-	*-	*-
!!!AGN: chorale
!!!EED: Wolfgang Drescher
!!!END: 2023/04/24
!!!ENC: Wolfgang Drescher
!!!END: 2023/04/24
!!!title: @{ONM}. @{OTL@@DE}